X: 1
T: Santa Anna's Retreat
O: Henry Reed
R: reel
Z: 2010 John Chambers <jc:trillian.mit.edu>
F: http://mmcconeghy.com/RIMUSIC/tunes.htm#tunebooks
N: Henry Reed reported this tune was played in 1848 by retreating Mexican forces.
N: The c notes are mostly indicated as slightly sharp.
M: 4/4
L: 1/16
Z: Contributed 2016-05-15 00:27:44 by jim Gaskins fiddeji@comcast.net
K: Ador
"a)"(ABcd) |\
e2a2 e2a2 (edef) g4 | B2g2 f2g2 (edBc d2)("c)"cd) |\
e2a2 e2a2 (edef) g4 | "b)"{a}b2e2 (edB)(B c2)A2 A4 ||
|| (ABAG E2A2) (^c2A2) (e2A2) | (c2d2) ([eA]d[eA]f g2)B2 A4 |\
   (ABAG E2A2) ("d)"^c2A2 e2A2) | (c2d2) ([eA]d[eA]f g2)B2 HA4 |]
P: Var:
|| "a)"[e2-A2-] | [e2A2]a2 [e2A2]a2 (edf2) g4 \
|| "b)"b2(ef edB)B \
|| "c)"(Bd) \
|| "d)"(^c2A2) (e2A2) \
|| y8 y8 y8 y8 y8 y8
